images/scooter.svg

<svg width="97" height="96" viewBox="0 0 97 96" fill="none" xmlns="http://www.w3.org/2000/svg">
<circle cx="48.5" cy="48" r="48" fill="#FCB72B"/>
<path fill-rule="evenodd" clip-rule="evenodd" d="M64.6713 46H66.5C66.8682 46 67.1667 45.7015 67.1667 45.3333V40C67.1667 39.6318 66.8682 39.3333 66.5 39.3333H60.2453L59.1667 37.176V34.6667C59.1667 34.2985 58.8682 34 58.5 34H54.5C54.1318 34 53.8333 34.2985 53.8333 34.6667V37.3333C53.8333 37.7015 54.1318 38 54.5 38H58.088L59.1667 40.1573V44C59.1667 42.8954 58.2712 42 57.1667 42C56.0621 42 55.1667 42.8954 55.1667 44V42.6667C55.1667 42.2985 54.8682 42 54.5 42H49.2487L47.1667 41.4793V30.6667C47.1667 29.1939 45.9728 28 44.5 28H41.8333C40.3606 28 39.1667 29.1939 39.1667 30.6667V38H35.8333C34.7288 38 33.8333 38.8954 33.8333 40V42H29.1667C28.8971 42.0001 28.654 42.1625 28.5509 42.4116C28.4477 42.6606 28.5047 42.9473 28.6953 43.138L30.224 44.6667L28.6953 46.1953C28.5047 46.386 28.4477 46.6727 28.5509 46.9218C28.654 47.1708 28.8971 47.3333 29.1667 47.3333H35.8333C36.9379 47.3333 37.8333 46.4379 37.8333 45.3333V43.3333H39.1667V50H37.1667C34.8489 50.0027 32.8844 51.706 32.5533 54H30.5C30.1318 54 29.8333 54.2985 29.8333 54.6667V57.3333C29.8333 57.7015 30.1318 58 30.5 58H32.5V59.3333H29.1667C28.7985 59.3333 28.5 59.6318 28.5 60V62.6667C28.5 63.0349 28.7985 63.3333 29.1667 63.3333H36.5C36.5 65.9107 38.5893 68 41.1667 68C43.744 68 45.8333 65.9107 45.8333 63.3333H57.8333C57.8333 65.9107 59.9227 68 62.5 68C65.0773 68 67.1667 65.9107 67.1667 63.3333H67.8333C68.0366 63.3335 68.2288 63.2409 68.3554 63.0818C68.482 62.9228 68.5291 62.7147 68.4833 62.5167L64.6713 46ZM55.1667 44C55.1667 45.1046 56.0621 46 57.1667 46C58.2712 46 59.1667 45.1046 59.1667 44V58H57.1667V57.3333C57.1667 56.2288 56.2712 55.3333 55.1667 55.3333V48C55.1667 47.6318 54.8682 47.3333 54.5 47.3333H47.1667V45.5207L49.0047 45.98C49.0576 45.9933 49.1121 46 49.1667 46H54.5C54.8682 46 55.1667 45.7015 55.1667 45.3333V44ZM57.8333 36.6667H55.1667V35.3333H57.8333V36.6667ZM32.5 62V60.6667H29.8333V62H32.5ZM32.5 56.6667H31.1667V55.3333H32.5V56.6667ZM65.8333 40.6667H64.5V44.6667H65.8333V40.6667ZM60.5 40.6667H63.1667V44.6667H60.5V40.6667ZM55.8333 57.3333C55.8333 56.9651 55.5349 56.6667 55.1667 56.6667H52.5V58H55.8333V57.3333ZM49.0047 43.3133C49.0576 43.3266 49.1121 43.3333 49.1667 43.3333H53.8333V44.6667H49.2487L44.5 43.4793V42.1873L49.0047 43.3133ZM41.8333 29.3333C41.097 29.3333 40.5 29.9303 40.5 30.6667V33.3333H42.5V32C42.5 31.6318 42.7985 31.3333 43.1667 31.3333H45.8333V30.6667C45.8333 29.9303 45.2364 29.3333 44.5 29.3333H41.8333ZM40.5 34.6667H43.1667C43.5349 34.6667 43.8333 34.3682 43.8333 34V32.6667H45.8333V34.1707L40.5 35.7707V34.6667ZM45.8333 38.6667V35.5627L40.5 37.1627V38.6667H45.8333ZM45.8333 40V41.146L43.9953 40.6867C43.7961 40.6368 43.5851 40.6814 43.4232 40.8078C43.2613 40.9341 43.1667 41.128 43.1667 41.3333V44C43.1667 44.3058 43.3747 44.5724 43.6713 44.6467L45.8333 45.1873V47.3333H40.5V40H45.8333ZM53.8333 55.3333V48.6667H40.5V50H51.8333C52.2015 50 52.5 50.2985 52.5 50.6667V55.3333H53.8333ZM36.5 45.3333C36.5 45.7015 36.2015 46 35.8333 46H30.776L31.638 45.138C31.8983 44.8777 31.8983 44.4557 31.638 44.1953L30.776 43.3333H36.5V45.3333ZM35.1667 40V42H39.1667V39.3333H35.8333C35.4651 39.3333 35.1667 39.6318 35.1667 40ZM41.1667 66.6667C39.3266 66.6645 37.8355 65.1734 37.8333 63.3333H39.1667C39.1667 64.4379 40.0621 65.3333 41.1667 65.3333C42.2712 65.3333 43.1667 64.4379 43.1667 63.3333H44.5C44.4978 65.1734 43.0067 66.6645 41.1667 66.6667ZM41.1667 64C41.5349 64 41.8333 63.7015 41.8333 63.3333H40.5C40.5 63.7015 40.7985 64 41.1667 64ZM45.8333 62H36.5V55.3333C36.5 54.9651 36.7985 54.6667 37.1667 54.6667H45.1667C45.5349 54.6667 45.8333 54.9651 45.8333 55.3333V62ZM47.1667 62H48.5V54.6667C48.4978 52.8266 47.0067 51.3355 45.1667 51.3333H37.1667C35.3266 51.3355 33.8355 52.8266 33.8333 54.6667V62H35.1667V55.3333C35.1667 54.2288 36.0621 53.3333 37.1667 53.3333H45.1667C46.2712 53.3333 47.1667 54.2288 47.1667 55.3333V62ZM48.4267 51.3333H51.1667V58H49.8333V54.6667C49.8335 53.4113 49.3262 52.2091 48.4267 51.3333ZM62.5 66.6667C60.66 66.6645 59.1689 65.1734 59.1667 63.3333H60.5C60.5 64.4379 61.3954 65.3333 62.5 65.3333C63.6046 65.3333 64.5 64.4379 64.5 63.3333H65.8333C65.8311 65.1734 64.34 66.6645 62.5 66.6667ZM62.5 64C62.8682 64 63.1667 63.7015 63.1667 63.3333H61.8333C61.8333 63.7015 62.1318 64 62.5 64ZM60.5 62V57.3333H61.8333V56H60.5V46H63.3L66.992 62H60.5ZM49.8333 62H59.1667V59.3333H49.8333V62ZM64.5 56H63.1667V57.3333H64.5V56ZM37.8333 56H39.1667V57.3333H37.8333V56ZM41.8333 56H40.5V57.3333H41.8333V56ZM43.1667 56H44.5V57.3333H43.1667V56ZM57.1667 43.3333C57.5349 43.3333 57.8333 43.6318 57.8333 44C57.8333 44.3682 57.5349 44.6667 57.1667 44.6667C56.7985 44.6667 56.5 44.3682 56.5 44C56.5 43.6318 56.7985 43.3333 57.1667 43.3333ZM28.5 32.6667H37.1667V34H28.5V32.6667ZM37.8333 35.3333H29.8333V36.6667H37.8333V35.3333Z" fill="#495567"/>
</svg>

<svg width="97" height="96" fill="none" xmlns="http://www.w3.org/2000/svg"><circle cx="48.5" cy="48" r="48" fill="#FCB72B"/><path fill-rule="evenodd" clip-rule="evenodd" d="M64.671 46H66.5a.667.667 0 0 0 .667-.667V40a.667.667 0 0 0-.667-.667h-6.255l-1.078-2.157v-2.51A.667.667 0 0 0 58.5 34h-4a.667.667 0 0 0-.667.667v2.666c0 .369.299.667.667.667h3.588l1.079 2.157V44a2 2 0 0 0-4 0v-1.333A.667.667 0 0 0 54.5 42h-5.251l-2.082-.52V30.666A2.667 2.667 0 0 0 44.5 28h-2.667a2.667 2.667 0 0 0-2.666 2.667V38h-3.334a2 2 0 0 0-2 2v2h-4.666a.667.667 0 0 0-.472 1.138l1.529 1.529-1.529 1.528a.667.667 0 0 0 .472 1.138h6.666a2 2 0 0 0 2-2v-2h1.334V50h-2a4.667 4.667 0 0 0-4.614 4H30.5a.667.667 0 0 0-.667.667v2.666c0 .369.299.667.667.667h2v1.333h-3.333A.667.667 0 0 0 28.5 60v2.667c0 .368.299.666.667.666H36.5a4.667 4.667 0 1 0 9.333 0h12a4.667 4.667 0 1 0 9.334 0h.666a.666.666 0 0 0 .65-.816L64.671 46Zm-9.504-2a2 2 0 1 0 4 0v14h-2v-.667a2 2 0 0 0-2-2V48a.667.667 0 0 0-.667-.667h-7.333v-1.812l1.838.459c.053.013.107.02.162.02H54.5a.667.667 0 0 0 .667-.667V44Zm2.666-7.333h-2.666v-1.334h2.666v1.334ZM32.5 62v-1.333h-2.667V62H32.5Zm0-5.333h-1.333v-1.334H32.5v1.334Zm33.333-16H64.5v4h1.333v-4Zm-5.333 0h2.667v4H60.5v-4Zm-4.667 16.666a.667.667 0 0 0-.666-.666H52.5V58h3.333v-.667Zm-6.828-14.02c.053.014.107.02.162.02h4.666v1.334H49.25L44.5 43.479v-1.292l4.505 1.126Zm-7.172-13.98c-.736 0-1.333.597-1.333 1.334v2.666h2V32c0-.368.298-.667.667-.667h2.666v-.666c0-.737-.597-1.334-1.333-1.334h-2.667ZM40.5 34.667h2.667a.667.667 0 0 0 .666-.667v-1.333h2v1.504l-5.333 1.6v-1.104Zm5.333 4v-3.104l-5.333 1.6v1.504h5.333Zm0 1.333v1.146l-1.838-.46a.666.666 0 0 0-.828.647V44c0 .306.208.572.504.647l2.162.54v2.146H40.5V40h5.333Zm8 15.333v-6.666H40.5V50h11.333c.369 0 .667.298.667.667v4.666h1.333Zm-17.333-10a.667.667 0 0 1-.667.667h-5.057l.862-.862a.667.667 0 0 0 0-.943l-.862-.862H36.5v2ZM35.167 40v2h4v-2.667h-3.334a.667.667 0 0 0-.666.667Zm6 26.667a3.337 3.337 0 0 1-3.334-3.334h1.334a2 2 0 1 0 4 0H44.5a3.337 3.337 0 0 1-3.333 3.334Zm0-2.667a.667.667 0 0 0 .666-.667H40.5c0 .369.298.667.667.667Zm4.666-2H36.5v-6.667c0-.368.298-.666.667-.666h8c.368 0 .666.298.666.666V62Zm1.334 0H48.5v-7.333a3.337 3.337 0 0 0-3.333-3.334h-8a3.337 3.337 0 0 0-3.334 3.334V62h1.334v-6.667a2 2 0 0 1 2-2h8a2 2 0 0 1 2 2V62Zm1.26-10.667h2.74V58h-1.334v-3.333a4.651 4.651 0 0 0-1.406-3.334ZM62.5 66.667a3.337 3.337 0 0 1-3.333-3.334H60.5a2 2 0 1 0 4 0h1.333a3.337 3.337 0 0 1-3.333 3.334Zm0-2.667a.667.667 0 0 0 .667-.667h-1.334c0 .369.299.667.667.667Zm-2-2v-4.667h1.333V56H60.5V46h2.8l3.692 16H60.5Zm-10.667 0h9.334v-2.667h-9.334V62ZM64.5 56h-1.333v1.333H64.5V56Zm-26.667 0h1.334v1.333h-1.334V56Zm4 0H40.5v1.333h1.333V56Zm1.334 0H44.5v1.333h-1.333V56Zm14-12.667a.667.667 0 1 1 0 1.334.667.667 0 0 1 0-1.334ZM28.5 32.667h8.667V34H28.5v-1.333Zm9.333 2.666h-8v1.334h8v-1.334Z" fill="#495567"/></svg>
